dist/files/navbar_freightSourcing.svg

<svg width="46" height="45" viewBox="0 0 46 45" fill="none" xmlns="http://www.w3.org/2000/svg">
<mask id="mask0_5175_1936" style="mask-type:luminance" maskUnits="userSpaceOnUse" x="0" y="0" width="41" height="41">
<path d="M0 0H40.4305V40.107H0V0Z" fill="white"/>
</mask>
<g mask="url(#mask0_5175_1936)">
<path d="M25.6223 37.6314C24.1079 38.113 22.5561 38.3877 20.9675 38.4556V28.582C21.7524 28.6096 22.5329 28.6864 23.3081 28.8125C23.3604 28.8215 23.4133 28.8254 23.4663 28.8241C23.5198 28.8222 23.5721 28.8157 23.6244 28.8042C23.6761 28.7927 23.7264 28.776 23.7748 28.7543C23.8232 28.7331 23.8697 28.7069 23.913 28.6768C23.9562 28.6461 23.9962 28.6115 24.033 28.5731C24.0692 28.5353 24.1021 28.4937 24.1305 28.4488C24.1589 28.404 24.1821 28.3573 24.2015 28.3079C24.2202 28.2586 24.2344 28.2081 24.2435 28.1562C24.2525 28.1043 24.2564 28.0518 24.2551 27.9993C24.2531 27.9462 24.2467 27.8943 24.2351 27.8424C24.2235 27.7912 24.2067 27.7412 24.1847 27.6932C24.1634 27.6452 24.137 27.5991 24.1066 27.5562C24.0756 27.5133 24.0408 27.4736 24.0027 27.4371C23.964 27.4006 23.922 27.3686 23.8768 27.3404C23.8323 27.3122 23.7845 27.2885 23.7348 27.2699C23.6851 27.2507 23.6341 27.2373 23.5818 27.2283C22.7162 27.0874 21.8447 27.0029 20.9675 26.9754V20.8716H30.3468C30.3255 21.4376 30.2881 21.9999 30.2287 22.555C30.2241 22.6076 30.2248 22.6607 30.2312 22.7126C30.2371 22.7651 30.2487 22.817 30.2648 22.8669C30.281 22.9168 30.3023 22.9655 30.3281 23.0116C30.3539 23.0577 30.3842 23.1006 30.4184 23.141C30.4527 23.1813 30.4907 23.2178 30.5327 23.2505C30.5747 23.2831 30.6192 23.3119 30.6663 23.3356C30.7134 23.36 30.7632 23.3792 30.8141 23.3939C30.8651 23.408 30.9174 23.4176 30.9704 23.4214C31.0239 23.4259 31.0769 23.4246 31.1292 23.4189C31.1821 23.4125 31.2344 23.4016 31.2847 23.3849C31.3351 23.3689 31.3841 23.3478 31.4306 23.3222C31.4771 23.2966 31.5203 23.2665 31.561 23.2325C31.601 23.198 31.6378 23.1602 31.6707 23.1186C31.7043 23.0776 31.7327 23.0334 31.7566 22.986C31.7811 22.9393 31.8005 22.89 31.8147 22.8394C31.8295 22.7888 31.8386 22.7369 31.8425 22.6844C31.9051 22.0838 31.9438 21.4786 31.9664 20.8716H38.6972C38.632 22.4488 38.3537 23.9875 37.8632 25.4885C37.8483 25.5384 37.8386 25.5897 37.8335 25.6415C37.8289 25.6934 37.8296 25.7453 37.8348 25.7971C37.8406 25.849 37.8509 25.8996 37.8664 25.9495C37.8819 25.9995 37.9019 26.0475 37.9264 26.093C37.9516 26.1391 37.9806 26.1826 38.0136 26.223C38.0471 26.2633 38.0839 26.2998 38.1246 26.3331C38.1653 26.3664 38.2085 26.3952 38.2543 26.4202C38.3008 26.4452 38.3492 26.465 38.3989 26.4804C38.4493 26.4964 38.5003 26.5066 38.5526 26.5124C38.6049 26.5182 38.6571 26.5188 38.7094 26.5143C38.7617 26.5098 38.8134 26.5002 38.8637 26.4862C38.9147 26.4714 38.9631 26.4529 39.0096 26.4285C39.0567 26.4048 39.1006 26.3773 39.1419 26.3446C39.1832 26.3126 39.2213 26.2768 39.2555 26.2371C39.2897 26.1974 39.3194 26.1551 39.3453 26.1096C39.3711 26.0642 39.3924 26.0168 39.4092 25.9675C43.4475 13.6721 33.8565 0.393191 20.9171 0.0922267C20.6673 0.0736566 20.4169 0.0691742 20.1664 0.0800601H20.1574C19.8275 0.0800601 19.4983 0.0883845 19.1691 0.105034C18.8399 0.121683 18.5113 0.146016 18.1834 0.178034C17.8548 0.210691 17.5282 0.251033 17.2022 0.29906C16.8762 0.347086 16.5515 0.403437 16.2281 0.467472C15.9047 0.531507 15.5833 0.603866 15.2637 0.683269C14.9435 0.762673 14.626 0.850401 14.3109 0.945813C13.9953 1.04058 13.6829 1.14368 13.3724 1.25382C13.0619 1.36396 12.7546 1.48179 12.4499 1.60729C12.1459 1.7328 11.8444 1.86535 11.5462 2.00495C11.2486 2.14519 10.9543 2.29247 10.6638 2.44679C10.3727 2.60112 10.0861 2.76184 9.80332 2.93026C9.52059 3.09867 9.24237 3.27348 8.96867 3.45534C8.69433 3.6372 8.42515 3.82546 8.16049 4.02013C7.89518 4.21544 7.63569 4.41651 7.38071 4.62398C7.12638 4.83145 6.87656 5.04469 6.63256 5.26433C6.38791 5.48397 6.14971 5.70937 5.91604 5.94054C5.68301 6.17171 5.45579 6.40864 5.23438 6.65133C5.01296 6.89338 4.79801 7.14119 4.58886 7.39349C4.37972 7.64643 4.17702 7.90385 3.98014 8.16704C3.78391 8.42958 3.59413 8.6966 3.4108 8.96875C3.22747 9.24026 3.05125 9.51625 2.88148 9.79672C2.71171 10.0772 2.54968 10.3615 2.39412 10.6503C2.23855 10.9385 2.09008 11.2305 1.94936 11.5257C1.80799 11.8215 1.67437 12.1206 1.54785 12.4222C1.42133 12.7244 1.30255 13.0292 1.19152 13.3372C1.08049 13.6452 0.976567 13.9552 0.881031 14.2683C0.78485 14.5808 0.69706 14.8958 0.616371 15.2134C0.536327 15.5304 0.463384 15.8493 0.398832 16.1701C0.334281 16.4909 0.278122 16.813 0.229062 17.1364C0.180649 17.4598 0.139981 17.7838 0.10706 18.1097C0.0747846 18.435 0.0502549 18.761 0.0334717 19.0876C0.0166882 19.4141 0.00829664 19.7407 0.00829664 20.0679C0.003778 20.7064 0.0308897 21.3429 0.0896314 21.9787C0.148373 22.6146 0.238745 23.2453 0.359456 23.8722C0.480813 24.4992 0.633154 25.119 0.815189 25.7305C0.997869 26.3427 1.21024 26.9446 1.45296 27.5357C1.69502 28.1274 1.96549 28.7056 2.26501 29.2704C2.56453 29.8352 2.89116 30.384 3.24555 30.9174C3.59929 31.4501 3.97821 31.965 4.38294 32.4613C4.78833 32.9575 5.2163 33.4327 5.66816 33.8867C5.73917 34.016 5.83858 34.1185 5.96574 34.194C6.42664 34.6609 6.90948 35.104 7.41492 35.5228C7.92036 35.9416 8.44581 36.3341 8.99127 36.7004C9.53672 37.0673 10.099 37.4054 10.6786 37.716C11.2583 38.0265 11.8522 38.307 12.4603 38.558C13.0683 38.8097 13.6874 39.03 14.3174 39.2189C14.9481 39.4084 15.5865 39.5659 16.2326 39.6921C16.8788 39.8176 17.5301 39.9111 18.186 39.9719C18.8418 40.0327 19.4989 40.0609 20.1574 40.0564C22.1662 39.9367 24.1479 39.6402 26.1025 39.1664C26.1529 39.151 26.202 39.1305 26.2484 39.1049C26.2956 39.0799 26.3388 39.0505 26.3801 39.0165C26.4208 38.9832 26.4576 38.9454 26.4911 38.9045C26.5247 38.8635 26.5538 38.8199 26.5783 38.7732C26.6028 38.7264 26.6228 38.6778 26.6383 38.6272C26.6532 38.5766 26.6628 38.5254 26.668 38.4729C26.6725 38.4203 26.6725 38.3678 26.6667 38.3153C26.6616 38.2628 26.6506 38.2116 26.6351 38.161C26.619 38.1111 26.5989 38.0624 26.5731 38.0163C26.5479 37.9695 26.5183 37.9266 26.4847 37.8857C26.4505 37.8453 26.413 37.8082 26.3717 37.7755C26.3304 37.7422 26.2859 37.7134 26.2394 37.6884C26.1923 37.6641 26.1432 37.6442 26.0922 37.6289C26.0412 37.6142 25.9896 37.6039 25.9366 37.5994C25.8837 37.5943 25.8308 37.5943 25.7778 37.6001C25.7249 37.6052 25.6733 37.6161 25.6223 37.6314ZM6.40792 32.3396C5.6843 31.5622 5.03491 30.7272 4.46105 29.8352C3.88654 28.9432 3.3966 28.0076 2.98992 27.0292C2.58325 26.0507 2.26695 25.0441 2.04102 24.0099C1.81509 22.9751 1.68276 21.9294 1.64467 20.8716H8.38384C8.37867 23.9184 8.85764 26.8883 9.82075 29.782C8.58976 30.512 7.45236 31.3643 6.40792 32.3396ZM33.8939 7.82061C34.6046 8.60631 35.243 9.44517 35.8104 10.3378C36.3778 11.2305 36.8658 12.1635 37.2738 13.1381C37.6824 14.112 38.0058 15.1135 38.2434 16.1419C38.4816 17.1704 38.6307 18.2109 38.692 19.2643H31.9793C31.9206 16.2316 31.4164 13.2738 30.4669 10.3903C31.7024 9.65585 32.8449 8.79906 33.8939 7.82061ZM29.9072 8.85669C29.4657 7.68421 28.9086 6.56808 28.2366 5.50894C27.5653 4.44917 26.792 3.46815 25.9186 2.56526C27.1967 2.98981 28.4135 3.54691 29.5683 4.23785C30.7225 4.92815 31.7876 5.73563 32.763 6.65901C31.8909 7.49403 30.9394 8.22659 29.9072 8.85669ZM19.3472 13.1784V19.2643H10.0344C10.1235 16.5178 10.5502 13.8232 11.3138 11.1812C12.5681 11.7889 13.8713 12.2608 15.225 12.597C16.5786 12.9332 17.9529 13.1272 19.3472 13.1784ZM11.8309 9.64176C13.3846 5.42634 15.9118 2.25149 19.3472 1.75521V11.5167C18.0427 11.4668 16.7568 11.2843 15.4903 10.9686C14.2238 10.6522 13.0038 10.2104 11.8309 9.64176ZM20.9675 1.71743C24.0756 2.05938 26.7668 5.30147 28.4638 9.65072C27.2929 10.2168 26.0761 10.6567 24.8135 10.9705C23.5508 11.2849 22.2682 11.4668 20.9675 11.5167V1.71743ZM10.403 8.85413C9.36308 8.21826 8.40449 7.4793 7.52724 6.63596C8.48841 5.74523 9.5335 4.96465 10.6619 4.2942C11.7902 3.6244 12.9773 3.07946 14.2225 2.65939C13.3717 3.54563 12.6242 4.51128 11.9806 5.55505C11.3364 6.59946 10.811 7.69894 10.403 8.85413ZM9.86787 10.4019C8.98546 13.2924 8.49745 16.2463 8.40449 19.2643H1.64855C1.69438 18.2084 1.83123 17.1639 2.05909 16.1317C2.28761 15.0988 2.60326 14.0935 3.00735 13.1157C3.4108 12.1372 3.89623 11.201 4.46363 10.3058C5.03104 9.41123 5.67139 8.5711 6.38533 7.78667C7.44978 8.78433 8.61106 9.65649 9.86787 10.4019ZM19.3472 38.3858C16.3314 37.9452 13.5731 35.0643 11.8199 30.5255C12.9909 29.9408 14.2109 29.4856 15.48 29.1577C16.7484 28.8305 18.0375 28.639 19.3472 28.5833V38.3858ZM19.3472 26.9773C17.9426 27.0324 16.5586 27.2315 15.1959 27.5735C13.8326 27.9161 12.5203 28.3944 11.2583 29.0091C10.4217 26.36 10.0079 23.6475 10.0163 20.8716H19.3472V26.9773ZM20.9675 13.1784C22.3624 13.1272 23.7374 12.9332 25.0917 12.5963C26.4453 12.2595 27.7499 11.7876 29.0041 11.1792C29.8381 13.8117 30.2887 16.5063 30.3565 19.2643H20.9675V13.1784ZM7.54402 33.4845C8.42192 32.6674 9.37212 31.9439 10.3953 31.3138C10.8252 32.4696 11.3713 33.5684 12.0342 34.6103C12.6965 35.6521 13.4614 36.6146 14.3284 37.497C13.069 37.0699 11.8677 36.5185 10.7251 35.8423C9.58191 35.1661 8.52133 34.3804 7.54402 33.4845Z" fill="#000066"/>
</g>
<mask id="mask1_5175_1936" style="mask-type:luminance" maskUnits="userSpaceOnUse" x="24" y="24" width="22" height="22">
<path d="M24.5664 24.5391H45.2228V45.004H24.5664V24.5391Z" fill="white"/>
</mask>
<g mask="url(#mask1_5175_1936)">
<path d="M44.4213 40.4649L41.2776 37.3163C41.2402 37.2792 41.1989 37.2459 41.155 37.2164C41.1111 37.1876 41.064 37.1627 41.0155 37.1422C40.9665 37.1223 40.9155 37.1069 40.8639 37.0961C40.8116 37.0858 40.7593 37.0807 40.7057 37.0801C40.6528 37.0801 40.6005 37.0845 40.5482 37.0948C40.4959 37.1044 40.4456 37.1198 40.3959 37.1396C40.3468 37.1588 40.3003 37.1831 40.2558 37.2126C40.2112 37.2414 40.1699 37.2741 40.1318 37.3106C40.1318 37.3106 39.7013 37.7338 39.4127 38.0175C38.8273 37.4316 37.9281 36.5306 37.36 35.962C37.6072 35.6534 37.8274 35.3255 38.0191 34.9797C38.2114 34.6339 38.3728 34.2747 38.5039 33.902C38.6349 33.5293 38.7337 33.1483 38.8001 32.759C38.8666 32.3696 38.8996 31.9777 38.8996 31.5827C38.5264 22.1977 24.9971 22.1951 24.6221 31.5827C24.6214 31.915 24.6447 32.2454 24.6912 32.5739C24.7376 32.9024 24.8073 33.2264 24.8997 33.5453C24.992 33.8649 25.1069 34.1754 25.2431 34.479C25.3799 34.7818 25.5374 35.0738 25.7156 35.355C25.8937 35.6361 26.0906 35.9031 26.3062 36.1567C26.5225 36.4102 26.7555 36.6478 27.0053 36.8687C27.2545 37.0897 27.5191 37.2926 27.7974 37.4764C28.0756 37.6609 28.3661 37.8248 28.6675 37.9682C28.969 38.1117 29.2795 38.234 29.5983 38.3339C29.9179 38.4344 30.2419 38.5119 30.5724 38.5669C30.9023 38.622 31.2347 38.6534 31.5691 38.6624C31.9035 38.6707 32.2372 38.656 32.5696 38.6182C32.9021 38.5798 33.23 38.5189 33.5541 38.435C33.8775 38.3511 34.1938 38.2455 34.503 38.1174C34.8115 37.9893 35.1097 37.8401 35.3976 37.6705C35.6849 37.5008 35.9592 37.3119 36.22 37.1037L38.2618 39.1484C37.9732 39.4321 37.5427 39.8553 37.5427 39.8553C37.5052 39.8925 37.4717 39.9328 37.442 39.977C37.4123 40.0205 37.3878 40.0666 37.3671 40.1153C37.3464 40.164 37.331 40.2139 37.3206 40.2658C37.3103 40.3177 37.3045 40.3695 37.3045 40.422C37.3045 40.4752 37.309 40.5271 37.3193 40.5789C37.329 40.6308 37.3439 40.6807 37.3639 40.7294C37.3839 40.7787 37.4084 40.8248 37.4375 40.869C37.4665 40.9132 37.5001 40.9542 37.5369 40.9913L40.6812 44.1399C40.9278 44.389 41.2137 44.5798 41.5378 44.7143C41.8625 44.8481 42.2001 44.9147 42.5519 44.9141C42.6803 44.9122 42.8075 44.9013 42.9347 44.8808C43.0612 44.8603 43.1858 44.8315 43.3084 44.7931C43.4311 44.7546 43.5498 44.7079 43.6654 44.6528C43.7809 44.5971 43.892 44.5337 43.9985 44.4626C44.1043 44.3909 44.205 44.3122 44.2999 44.2264C44.3948 44.1405 44.4826 44.0483 44.5639 43.9497C44.6453 43.8511 44.7189 43.7474 44.7847 43.6379C44.8505 43.529 44.9086 43.4157 44.9577 43.2978C45.0074 43.18 45.0481 43.0596 45.0797 42.9367C45.1113 42.8131 45.1339 42.6882 45.1475 42.5614C45.1604 42.4347 45.1649 42.3079 45.1597 42.1804C45.1546 42.0536 45.1397 41.9269 45.1165 41.802C45.0926 41.6771 45.0597 41.5542 45.0184 41.4338C44.9764 41.3134 44.9261 41.1962 44.8673 41.0829C44.8086 40.9702 44.7421 40.8613 44.6672 40.7582C44.5923 40.6545 44.5104 40.5565 44.4213 40.4649ZM26.2423 31.5827C26.2423 31.4034 26.2514 31.2247 26.2694 31.0467C26.2869 30.868 26.3133 30.6913 26.3488 30.5152C26.3843 30.3397 26.4282 30.1662 26.4805 29.9946C26.5334 29.823 26.5941 29.6546 26.6632 29.4887C26.7329 29.3235 26.8097 29.1615 26.8949 29.0033C26.9801 28.8458 27.0731 28.6921 27.1738 28.5429C27.2739 28.3944 27.3817 28.2503 27.4966 28.112C27.6108 27.9736 27.7322 27.8411 27.86 27.7143C27.9878 27.5875 28.1214 27.4671 28.2615 27.3538C28.4009 27.2398 28.5455 27.1335 28.6959 27.0336C28.8463 26.9344 29.0012 26.8421 29.1607 26.7576C29.3201 26.6737 29.4828 26.5969 29.65 26.5284C29.8165 26.4599 29.9869 26.3997 30.1593 26.3478C30.3323 26.2953 30.5072 26.2524 30.6847 26.2172C30.8616 26.1819 31.0404 26.1557 31.2205 26.1384C31.4 26.1211 31.5801 26.1121 31.7608 26.1121C31.9416 26.1121 32.1217 26.1211 32.3018 26.1384C32.4812 26.1557 32.66 26.1819 32.8369 26.2172C33.0144 26.2524 33.1893 26.2953 33.3623 26.3478C33.5353 26.3997 33.7051 26.4599 33.8716 26.5284C34.0388 26.5969 34.2022 26.6737 34.3616 26.7576C34.5204 26.8421 34.6753 26.9344 34.8257 27.0336C34.9761 27.1335 35.1207 27.2398 35.2608 27.3538C35.4002 27.4671 35.5338 27.5875 35.6617 27.7143C35.7895 27.8411 35.9108 27.9736 36.0257 28.112C36.14 28.2503 36.2478 28.3944 36.3485 28.5429C36.4485 28.6921 36.5415 28.8458 36.6267 29.0033C36.7119 29.1615 36.7894 29.3235 36.8584 29.4887C36.9275 29.6546 36.9888 29.823 37.0411 29.9946C37.0934 30.1662 37.1373 30.3397 37.1728 30.5152C37.2083 30.6913 37.2348 30.868 37.2528 31.0467C37.2703 31.2247 37.2793 31.4034 37.2793 31.5827C37.2787 31.9393 37.2432 32.2928 37.1741 32.6424C37.1044 32.9927 37.0024 33.3327 36.8675 33.6631C36.7326 33.9936 36.5673 34.3086 36.3717 34.6077C36.1761 34.9067 35.9534 35.1846 35.7043 35.4414L35.6997 35.4459C32.6942 38.4338 26.4411 37.1499 26.2423 31.5827ZM43.2632 43.0161C43.2161 43.0628 43.1651 43.1045 43.1096 43.141C43.0541 43.1775 42.996 43.2082 42.934 43.2332C42.8727 43.2581 42.8094 43.2767 42.7442 43.2895C42.679 43.3023 42.6132 43.3081 42.5467 43.3081C42.4802 43.3075 42.4144 43.3011 42.3492 43.2876C42.284 43.2742 42.2207 43.2549 42.1594 43.2293C42.0981 43.2037 42.04 43.1723 41.9851 43.1352C41.9302 43.0987 41.8792 43.0564 41.8321 43.0097L39.2578 40.4316L40.6967 39.0178L43.2703 41.5958C43.3175 41.6425 43.3588 41.6938 43.3956 41.7488C43.4324 41.8039 43.4627 41.8615 43.4879 41.923C43.513 41.9839 43.5318 42.0466 43.5447 42.1113C43.5576 42.176 43.5634 42.2413 43.5634 42.3072C43.5627 42.3732 43.5563 42.4385 43.5427 42.5032C43.5292 42.5678 43.5098 42.6306 43.484 42.6914C43.4588 42.7523 43.4272 42.8099 43.3897 42.8643C43.353 42.9194 43.3104 42.97 43.2632 43.0161Z" fill="#000066"/>
</g>
</svg>

<svg xmlns="http://www.w3.org/2000/svg" width="46" height="45" fill="none"><mask id="a" width="41" height="41" x="0" y="0" maskUnits="userSpaceOnUse" style="mask-type:luminance"><path fill="#fff" d="M0 0h40.43v40.107H0V0Z"/></mask><g mask="url(#a)"><path fill="#006" d="M25.622 37.631a17.801 17.801 0 0 1-4.654.825v-9.874c.784.028 1.565.104 2.34.23a.814.814 0 0 0 .823-.363.823.823 0 0 0 .124-.45.762.762 0 0 0-.148-.443.799.799 0 0 0-.525-.328 20.194 20.194 0 0 0-2.614-.253v-6.103h9.379a24.492 24.492 0 0 1-.118 1.683.754.754 0 0 0 .036.312.808.808 0 0 0 1.166.455.82.82 0 0 0 .326-.336.755.755 0 0 0 .085-.302c.063-.6.102-1.205.124-1.812h6.731a17.062 17.062 0 0 1-.834 4.616.813.813 0 0 0-.028.31.817.817 0 0 0 .179.425.813.813 0 0 0 1.395-.255C43.447 13.672 33.856.393 20.917.091c-.25-.018-.5-.023-.75-.012h-.01a19.556 19.556 0 0 0-1.974.098 20.924 20.924 0 0 0-1.955.29 20.572 20.572 0 0 0-2.856.786 19.817 19.817 0 0 0-1.826.751 20.589 20.589 0 0 0-2.577 1.45 20.2 20.2 0 0 0-3.735 3.196 20.178 20.178 0 0 0-2.353 3.146 19.561 19.561 0 0 0-.932 1.729 20.202 20.202 0 0 0-.757 1.811 19.69 19.69 0 0 0-.793 2.833 20.43 20.43 0 0 0-.292 1.94 20.623 20.623 0 0 0-.017 3.869 19.485 19.485 0 0 0 .725 3.752 19.286 19.286 0 0 0 2.43 5.187 19.58 19.58 0 0 0 2.423 2.969c.071.129.17.231.298.307a19.67 19.67 0 0 0 10.267 5.498 19.853 19.853 0 0 0 3.924.364c2.01-.12 3.99-.416 5.945-.89a.765.765 0 0 0 .278-.15.794.794 0 0 0 .258-.389.835.835 0 0 0 .029-.312.784.784 0 0 0-.295-.54.856.856 0 0 0-.28-.146.806.806 0 0 0-.47.002ZM6.408 32.34a17.822 17.822 0 0 1-4.367-8.33 17.66 17.66 0 0 1-.396-3.138h6.739a27.883 27.883 0 0 0 1.437 8.91 19.732 19.732 0 0 0-3.413 2.558ZM33.894 7.82a18.695 18.695 0 0 1 4.798 11.444h-6.713a30.076 30.076 0 0 0-1.512-8.874 19.973 19.973 0 0 0 3.427-2.57Zm-3.987 1.037a18.339 18.339 0 0 0-3.989-6.291 18.358 18.358 0 0 1 6.845 4.093 16.694 16.694 0 0 1-2.856 2.198Zm-10.56 4.321v6.086h-9.313c.09-2.746.516-5.44 1.28-8.083a20.12 20.12 0 0 0 8.033 1.997Zm-7.516-3.536c1.554-4.216 4.08-7.39 7.516-7.887v9.762a18.89 18.89 0 0 1-7.516-1.875Zm9.137-7.925c3.108.342 5.799 3.584 7.496 7.934a18.874 18.874 0 0 1-7.496 1.866v-9.8ZM10.403 8.854a16.727 16.727 0 0 1-2.876-2.218 18.61 18.61 0 0 1 6.695-3.977 17.224 17.224 0 0 0-3.819 6.195Zm-.535 1.548a33.782 33.782 0 0 0-1.464 8.862H1.65a18.16 18.16 0 0 1 2.815-8.958 18.29 18.29 0 0 1 1.921-2.52 19.99 19.99 0 0 0 3.483 2.616Zm9.48 27.984c-3.017-.44-5.775-3.322-7.528-7.86a18.605 18.605 0 0 1 7.527-1.942v9.802Zm0-11.409a20.275 20.275 0 0 0-8.09 2.032 26.595 26.595 0 0 1-1.242-8.137h9.331v6.105Zm1.62-13.799a20.093 20.093 0 0 0 8.036-1.999 28.996 28.996 0 0 1 1.352 8.085h-9.389v-6.086ZM7.544 33.484a18.122 18.122 0 0 1 2.851-2.17c.43 1.156.976 2.254 1.64 3.296a17.518 17.518 0 0 0 2.293 2.887 19.1 19.1 0 0 1-6.784-4.013Z"/></g><mask id="b" width="22" height="22" x="24" y="24" maskUnits="userSpaceOnUse" style="mask-type:luminance"><path fill="#fff" d="M24.566 24.54h20.657v20.464H24.566V24.539Z"/></mask><g mask="url(#b)"><path fill="#006" d="m44.421 40.465-3.143-3.149a.836.836 0 0 0-.414-.22.863.863 0 0 0-.316-.001.8.8 0 0 0-.292.118.829.829 0 0 0-.124.098l-.72.706-2.052-2.055a6.994 6.994 0 0 0 1.44-3.203c.067-.39.1-.781.1-1.176-.374-9.385-13.903-9.388-14.278 0a6.959 6.959 0 0 0 .278 1.962 7.07 7.07 0 0 0 1.406 2.612 7.11 7.11 0 0 0 2.361 1.811 7.116 7.116 0 0 0 1.905.599 7.223 7.223 0 0 0 1.998.051 7.233 7.233 0 0 0 1.933-.5 7.203 7.203 0 0 0 1.717-1.014l2.042 2.044-.72.707a.796.796 0 0 0-.238.567.8.8 0 0 0 .233.57l3.144 3.148a2.623 2.623 0 0 0 1.87.774 2.645 2.645 0 0 0 1.114-.261c.116-.056.227-.12.334-.19a2.746 2.746 0 0 0 .565-.513 2.56 2.56 0 0 0 .394-.652 2.582 2.582 0 0 0 .159-1.496 2.696 2.696 0 0 0-.25-.72 2.579 2.579 0 0 0-.446-.617Zm-18.179-8.882a5.325 5.325 0 0 1 .107-1.068 5.578 5.578 0 0 1 .314-1.026 5.675 5.675 0 0 1 .51-.946 5.383 5.383 0 0 1 .687-.829 5.434 5.434 0 0 1 1.79-1.186 5.528 5.528 0 0 1 2.11-.416 5.651 5.651 0 0 1 1.077.105 5.47 5.47 0 0 1 1.035.311 5.657 5.657 0 0 1 .954.506 5.574 5.574 0 0 1 1.2 1.078c.114.138.222.282.322.43a5.69 5.69 0 0 1 .51.947 5.44 5.44 0 0 1 .01 4.174 5.564 5.564 0 0 1-1.164 1.778l-.004.005c-3.006 2.988-9.259 1.704-9.458-3.863Zm17.021 11.433a.991.991 0 0 1-.519.273 1.022 1.022 0 0 1-.759-.154 1.02 1.02 0 0 1-.153-.125l-2.574-2.578 1.439-1.414 2.573 2.578a.982.982 0 0 1 .275.515.999.999 0 0 1-.282.905Z"/></g></svg>
